X: 33654
T: Rambling Idiot, The
R: jig
M: 6/8
K: Gmajor
FE|:DGG GFG|EGE DEF|GFG GAB|cBc AFE|
DGG GFG|EGE DEF|GFG ABc|1 BAF GFE:|2 BAF GBc||
dBB gBB|cBc ABc|d^cd def|gag fe=c|
dBB gBB|cBc ABc|d^cd efa|gfe dBA|
GFG EGE|DB,G, G,B,D|EGF GAB|cBA GFD|
CGC B,GB,|A,B,A, G,B,D|GFG ABc|1 BAF GFE "da capo":|2 BAF G3||

